images/header/icons/upload.svg

<svg xmlns="http://www.w3.org/2000/svg" viewBox="0 0 24 24" preserveAspectRatio="xMidYMid meet" focusable="false" class="style-scope yt-icon" style="pointer-events: none; display: block; width: 100%; height: 100%;"><g class="style-scope yt-icon"><path d="M14,13h-3v3H9v-3H6v-2h3V8h2v3h3V13z M17,6H3v12h14v-6.39l4,1.83V8.56l-4,1.83V6 M18,5v3.83L22,7v8l-4-1.83V19H2V5H18L18,5 z" class="style-scope yt-icon"></path></g></svg>

<svg width="24" height="24" viewBox="0 0 24 24" fill="none" xmlns="http://www.w3.org/2000/svg">
<path d="M14 13H11V16H9V13H6V11H9V8H11V11H14V13ZM17 6H3V18H17V11.61L21 13.44V8.56L17 10.39V6ZM18 5V8.83L22 7V15L18 13.17V19H2V5H18Z" fill="white"/>
</svg>
